X: 1
T: Lochiel House March, The
M: 4/4
L: 1/8
R: barndance
K: Dmaj
|: AB/c/ | 
d3 e d2 A2 | BcdB AB/A/ GF | G2 B2 A2 d2 | f3 e e2 g/f/e | 
d>cde de/d/ cA | B>cdB A2 A/G/F | EFGA Bcde | fg/f/ ec d2 :|
|: fg | 
a3 b a2 a/g/f | g3 a ga/g/ fe | f2 ed a2 gf | f2 e2 eA e/f/g | 
aAab aAgf | gGga g2 g/f/e | f2 ed A2 c2 |1 d3 c de :|2 d2 d/d/d d2 ||
